X: 23261
T: Leaving Lerwick Harbour
R: reel
M: 4/4
K: Dmajor
A|d3 f/e/ d3A|B3d A3F|G3A/B/ A2 F2|E4E2 A2|
d3 f/e/ d3A|B2 d2 A3F|G3E A2 F2|D4D3:|
f/g/|a3f d3A|B2 d2 g2 b2|a3f/d/ A2 F2|(E4 E3)f/g/|
a3f d3A|B2 d2 g2 b2|a3A f2 e2|(d4 d3)f/g/|
a3f d3A|B2 d2 g2 b2|a3d A2 F2|E4E2 A2|
d3 f/e/ d3A|B2 d2 A3F|G3E A2 F2|D4D3||

